X: 609
T: Nem ám az az embör
M:4/4
L:1/4
K:C
C/C/ C D/E/F | G<A G<F | C2 C z |
G/G/G A/B/c | d<e d c | G2 G z |
c<B A<B | c2 G2 | A G F<A | G2 C z |
C/C/ C D/E/F | G A G F | C2 C z |



